X: 10874
M: 6/8
L: 1/8
K: A
E |\
|: c |\
e2e cde | f2f f3  | g2g efg | a2a a3 |\
e2e cde | fga agf | edc BAG | A2A A2 :|


